X:43
T:score135
L:1/4
Q:1/4=96
M:4/4
I:linebreak $
K:D
 F B c2 | F B c2 | d c B c/d/ |$ e d c2 | F B c2 | F B c2 | e d c d/e/ |$ ^A B2 z |] %8
